Numix/22/mimetypes/text-rust.svg

<?xml version="1.0" encoding="UTF-8" standalone="no"?>
<svg
   xmlns:dc="http://purl.org/dc/elements/1.1/"
   xmlns:cc="http://creativecommons.org/ns#"
   xmlns:rdf="http://www.w3.org/1999/02/22-rdf-syntax-ns#"
   xmlns:svg="http://www.w3.org/2000/svg"
   xmlns="http://www.w3.org/2000/svg"
   xmlns:sodipodi="http://sodipodi.sourceforge.net/DTD/sodipodi-0.dtd"
   xmlns:inkscape="http://www.inkscape.org/namespaces/inkscape"
   width="22"
   height="22"
   viewBox="0 0 22 22"
   id="svg2"
   version="1.1"
   inkscape:version="0.91 r13725"
   sodipodi:docname="text-rust.svg">
  <metadata
     id="metadata16">
    <rdf:RDF>
      <cc:Work
         rdf:about="">
        <dc:format>image/svg+xml</dc:format>
        <dc:type
           rdf:resource="http://purl.org/dc/dcmitype/StillImage" />
        <dc:title />
      </cc:Work>
    </rdf:RDF>
  </metadata>
  <defs
     id="defs14" />
  <sodipodi:namedview
     pagecolor="#ffffff"
     bordercolor="#666666"
     borderopacity="1"
     objecttolerance="10"
     gridtolerance="10"
     guidetolerance="10"
     inkscape:pageopacity="0"
     inkscape:pageshadow="2"
     inkscape:window-width="1366"
     inkscape:window-height="704"
     id="namedview12"
     showgrid="false"
     inkscape:zoom="1"
     inkscape:cx="10.193993"
     inkscape:cy="8.0031405"
     inkscape:window-x="0"
     inkscape:window-y="27"
     inkscape:window-maximized="1"
     inkscape:current-layer="svg2"
     inkscape:snap-smooth-nodes="true"
     inkscape:object-nodes="true"
     showguides="false">
    <inkscape:grid
       type="xygrid"
       id="grid3004"
       empspacing="5"
       visible="true"
       enabled="true"
       snapvisiblegridlinesonly="true" />
  </sodipodi:namedview>
  <path
     style="fill:#b2542c;fill-opacity:1"
     d="M 4,0 C 3.527343,0 3,0.527344 3,1 l 0,20 c 0,0.445312 0.554687,1 1,1 l 14,0 c 0.445313,0 0.992367,-0.554753 1,-1 L 19,6 13,0 z"
     id="path4"
     inkscape:connector-curvature="0"
     sodipodi:nodetypes="ssssssccs" />
  <path
     style="fill:#000000;fill-opacity:0.19599998"
     d="m 14,6 5,5 0,-5 z"
     id="path6"
     inkscape:connector-curvature="0"
     sodipodi:nodetypes="cccc" />
  <path
     style="fill:#ffffff;fill-opacity:0.39200003"
     d="m 13,0 6,6 -5,0 C 13.554688,6 13,5.445312 13,5 z"
     id="path8"
     inkscape:connector-curvature="0"
     sodipodi:nodetypes="ccssc" />
  <path
     sodipodi:nodetypes="cccscccscccccccccccccccccc"
     inkscape:connector-curvature="0"
     id="path4143"
     style="font-style:normal;font-variant:normal;font-weight:bold;font-stretch:normal;font-size:6.69263983px;line-height:125%;font-family:'Roboto Slab';-inkscape-font-specification:'Roboto Slab Bold';letter-spacing:0px;word-spacing:0px;fill:#ffffff;fill-opacity:1;stroke:none;stroke-width:1px;stroke-linecap:butt;stroke-linejoin:miter;stroke-opacity:1"
     d="m 10.989492,10 c 1.285341,0 2.207779,0.731246 2.210508,2 0,1 -0.702216,1.400644 -1.025698,1.525 0.319806,0.1973 0.405652,0.258464 0.751397,1.125 0.239395,0.6 0.430961,0.6 1.074301,0.624722 l 0,0.725277 -1.275,0 c -0.451809,0 -0.533532,-0.418056 -0.783,-1.049999 -0.373396,-0.945886 -0.747515,-0.943341 -1.231949,-0.949999 L 10,14 l 0,1.25 1,-2e-6 L 11,16 l -3,0 0,-0.750002 1,2e-6 0,-4.5 -1,0 L 8,10 Z M 10,13 l 1,0 c 0.815902,-0.0114 1.1,-0.453187 1.1,-1 5.39e-4,-0.650201 -0.486629,-1 -1.1,-1 l -1,0 z" />
  <path
     style="opacity:1;fill:#ffffff;fill-opacity:1;stroke:none;stroke-width:2;stroke-linecap:round;stroke-linejoin:round;stroke-miterlimit:4;stroke-dasharray:none;stroke-opacity:1"
     d="M 10.699219 7 L 10.220703 8.0644531 A 5 5 0 0 0 9.203125 8.3339844 L 8.2597656 7.6542969 L 7.7402344 7.953125 L 7.8574219 9.1152344 A 5 5 0 0 0 7.1152344 9.8574219 L 5.953125 9.7402344 L 5.6542969 10.259766 L 6.3378906 11.208984 A 5 5 0 0 0 6.0683594 12.220703 L 5 12.699219 L 5 13.300781 L 6.0644531 13.779297 A 5 5 0 0 0 6.3339844 14.796875 L 5.6542969 15.740234 L 5.953125 16.259766 L 7.1152344 16.142578 A 5 5 0 0 0 7.8574219 16.884766 L 7.7402344 18.046875 L 8.2597656 18.345703 L 9.2089844 17.662109 A 5 5 0 0 0 10.220703 17.931641 L 10.699219 19 L 11.300781 19 L 11.779297 17.935547 A 5 5 0 0 0 12.796875 17.666016 L 13.740234 18.345703 L 14.259766 18.046875 L 14.142578 16.884766 A 5 5 0 0 0 14.884766 16.142578 L 16.046875 16.259766 L 16.345703 15.740234 L 15.662109 14.791016 A 5 5 0 0 0 15.931641 13.779297 L 17 13.300781 L 17 12.699219 L 15.935547 12.220703 A 5 5 0 0 0 15.666016 11.203125 L 16.345703 10.259766 L 16.046875 9.7402344 L 14.884766 9.8574219 A 5 5 0 0 0 14.142578 9.1152344 L 14.259766 7.953125 L 13.740234 7.6542969 L 12.791016 8.3378906 A 5 5 0 0 0 11.779297 8.0683594 L 11.300781 7 L 10.699219 7 z M 11 9 A 4 4 0 0 1 15 13 A 4 4 0 0 1 11 17 A 4 4 0 0 1 7 13 A 4 4 0 0 1 11 9 z "
     id="path4145" />
</svg>

<svg xmlns="http://www.w3.org/2000/svg" viewBox="0 0 22 22">
 <path d="m 4 0 c -0.473 0 -1 0.527 -1 1 l 0 20 c 0 0.445 0.555 1 1 1 l 14 0 c 0.445 0 0.992 -0.555 1 -1 l 0 -15 -6 -6 z" style="fill:#b2542c;fill-opacity:1"/>
 <path d="m 14 6 5 5 0 -5 z" style="fill:#000;fill-opacity:0.196"/>
 <path d="m 13 0 6 6 -5 0 c -0.445 0 -1 -0.555 -1 -1 z" style="fill:#fff;fill-opacity:0.392"/>
 <path d="m 10.989 10 c 1.285 0 2.208 0.731 2.211 2 0 1 -0.702 1.401 -1.026 1.525 0.32 0.197 0.406 0.258 0.751 1.125 0.239 0.6 0.431 0.6 1.074 0.625 l 0 0.725 -1.275 0 c -0.452 0 -0.534 -0.418 -0.783 -1.05 -0.373 -0.946 -0.748 -0.943 -1.232 -0.95 l -0.71 0 l 0 1.25 1 0 l 0 0.75 l -3 0 0 -0.75 1 0 0 -4.5 -1 0 l 0 -0.75 m 2 3 l 1 0 c 0.816 -0.011 1.1 -0.453 1.1 -1 0.001 -0.65 -0.487 -1 -1.1 -1 l -1 0 z" style="fill:#fff;fill-opacity:1;stroke:none"/>
 <path d="m 10.699 7 l -0.479 1.064 a 5 5 0 0 0 -1.018 0.27 l -0.943 -0.68 l -0.52 0.299 l 0.117 1.162 a 5 5 0 0 0 -0.742 0.742 l -1.162 -0.117 l -0.299 0.52 l 0.684 0.949 a 5 5 0 0 0 -0.27 1.012 l -1.068 0.479 l 0 0.602 l 1.064 0.479 a 5 5 0 0 0 0.27 1.018 l -0.68 0.943 l 0.299 0.52 l 1.162 -0.117 a 5 5 0 0 0 0.742 0.742 l -0.117 1.162 l 0.52 0.299 l 0.949 -0.684 a 5 5 0 0 0 1.012 0.27 l 0.479 1.068 l 0.602 0 l 0.479 -1.064 a 5 5 0 0 0 1.018 -0.27 l 0.943 0.68 l 0.52 -0.299 l -0.117 -1.162 a 5 5 0 0 0 0.742 -0.742 l 1.162 0.117 l 0.299 -0.52 l -0.684 -0.949 a 5 5 0 0 0 0.27 -1.012 l 1.068 -0.479 l 0 -0.602 l -1.064 -0.479 a 5 5 0 0 0 -0.27 -1.018 l 0.68 -0.943 l -0.299 -0.52 l -1.162 0.117 a 5 5 0 0 0 -0.742 -0.742 l 0.117 -1.162 l -0.52 -0.299 l -0.949 0.684 a 5 5 0 0 0 -1.012 -0.27 l -0.479 -1.068 l -0.602 0 z m 0.301 2 a 4 4 0 0 1 4 4 a 4 4 0 0 1 -4 4 a 4 4 0 0 1 -4 -4 a 4 4 0 0 1 4 -4 z" style="fill:#fff;opacity:1;fill-opacity:1;stroke:none"/>
</svg>
